X:11
T:11. Neuen Doerfer
K: Eb
M:3/4
L:1/8
N:Written with second voice, 2012 Mar 30
|: G3 G G2 | G2 E2 B,2 | \
M:2/4
L:1/4
(B,D) | (AD) | (B,D) | \
M:3/4
L:1/8
D3 D D2 | D2 D2 D2 |
% End first line Neun Dorfer part A
M:2/4
L:1/4
(G,E) | (GE) | (B,G,) | \
M:3/4
L:1/8
G3 G G2 | G2 E2 B,2 | \
M:2/4
L:1/4
(B,D) | (AD) | (B,D) |
% End second line Neun Dorfer part A
M:3/4
L:1/8
D3 D D2 | D2 D2 B,2 | \
M:2/4
L:1/4
(G,E) | (DB,) | \
M:3/4
L:1/8
E2 z2 z2 :|
% End A part Neun Dorfer
K:Ab
M:3/4
L:1/8
|: c3 c c2 | c2 A2 A2 | \
M:2/4
L:1/4
(EG) | (dG) | (EG) | \
M:3/4
L:1/8
 G3 G G2  | (G2 G2 E2)
% End 1st line B part Neun Dorfer
M:2/4
L:1/4
 AA  | (cA) | (Ac) | \
M:3/4
L:1/8
c3 c c2 | c2 A2 A2 | \
M:2/4
L:1/4
(EG) | (dG) | (EG) |
% End 2nd line B part Neun Dorfer
M:3/4
L:1/8
G3 G G2 | G2 G2 D2 | \
M:2/4
L:1/4
(CE) | (GD) | \
M:3/4
L:1/8
C2 z2 z2 :|
% End Neun Dorfer

